48x48/apps/manuskript.svg

<svg height="48" width="48" xmlns="http://www.w3.org/2000/svg"><circle cx="24" cy="23" opacity=".2" r="19"/><circle cx="24" cy="22" fill="#949494" r="19"/><path d="m24 3a19 19 0 0 0 -19 19 19 19 0 0 0 .021.592 19 19 0 0 1 18.979-18.592 19 19 0 0 1 18.979 18.408 19 19 0 0 0 .021-.408 19 19 0 0 0 -19-19z" fill="#f4f4f7" opacity=".2"/><path d="m7 47c4.059-33.895 29.93-40.567 37-44-5.286 16.4-13.858 28.094-31.799 33.79 6.28-11.997 15.9-19.981 26.426-28.18-9.01 7.648-18.025 15.29-23.901 26.437 8.392-2.8 25.467-18.855 19.766-19.204 1.943-.21 4.258-1.636 6.403-9.64-6.537 2.399-25.827 11.301-33.895 40.797z" opacity=".1"/><path d="m7 46c4.059-33.895 29.93-40.567 37-44-5.286 16.4-13.858 28.094-31.799 33.79 6.28-11.997 15.9-19.981 26.426-28.18-9.01 7.648-18.025 15.29-23.901 26.437 8.392-2.8 25.467-18.855 19.766-19.204 1.943-.21 4.258-1.636 6.403-9.64-6.537 2.399-25.827 11.301-33.895 40.797z" fill="#17191e"/></svg>

<svg height="48" width="48" xmlns="http://www.w3.org/2000/svg">
    <circle cx="24" cy="23" opacity=".2" r="19"/>
    <circle cx="24" cy="22" fill="#949494" r="19"/>
    <path d="M24 3A19 19 0 0 0 5 22a19 19 0 0 0 .021.592A19 19 0 0 1 24 4a19 19 0 0 1 18.979 18.408A19 19 0 0 0 43 22 19 19 0 0 0 24 3z" fill="#f4f4f7" opacity=".2"/>
    <path d="M7 47C11.059 13.105 36.93 6.433 44 3c-5.286 16.4-13.858 28.094-31.799 33.79 6.28-11.997 15.9-19.981 26.426-28.18-9.01 7.648-18.025 15.29-23.901 26.437 8.392-2.8 25.467-18.855 19.766-19.204 1.943-.21 4.258-1.636 6.403-9.64C34.358 8.602 15.068 17.504 7 47z" opacity=".1"/>
    <path d="M7 46C11.059 12.105 36.93 5.433 44 2c-5.286 16.4-13.858 28.094-31.799 33.79 6.28-11.997 15.9-19.981 26.426-28.18-9.01 7.648-18.025 15.29-23.901 26.437 8.392-2.8 25.467-18.855 19.766-19.204 1.943-.21 4.258-1.636 6.403-9.64C34.358 7.602 15.068 16.504 7 46z" fill="#17191e"/>
</svg>
